X: 1
T: Marcha Nupcial De Villaperi
M: 6/8
L: 1/8
R: jig
K: Dmaj
a|:fed dcd|fdf agf|efe Ace|dcB A2a|
fed dcd|fdf agf|efe dBc|1d3 d2a:|2d3 cBA||
|:~B3 cde|fdf gfe|dBd dcB|~A3 cBA|
BdB cde|fdf agf|efe dBc|1d3 cBA:|2d3d2a||&quot;Last time&quot; d6||
